images/50585659.svg

<?xml version="1.0" encoding="UTF-8"?>
<svg xmlns="http://www.w3.org/2000/svg" xmlns:xlink="http://www.w3.org/1999/xlink" width="300pt" height="300pt" viewBox="0 0 300 300" version="1.1">
<defs>
<g>
<symbol overflow="visible" id="glyph0-0">
<path style="stroke:none;" d="M 0.453125 1.59375 L 0.453125 -6.34375 L 4.953125 -6.34375 L 4.953125 1.59375 Z M 0.953125 1.09375 L 4.453125 1.09375 L 4.453125 -5.84375 L 0.953125 -5.84375 Z M 0.953125 1.09375 "/>
</symbol>
<symbol overflow="visible" id="glyph0-1">
<path style="stroke:none;" d="M 0.890625 -6.5625 L 4.65625 -6.5625 L 4.65625 -5.8125 L 1.765625 -5.8125 L 1.765625 -3.875 L 4.375 -3.875 L 4.375 -3.140625 L 1.765625 -3.140625 L 1.765625 0 L 0.890625 0 Z M 0.890625 -6.5625 "/>
</symbol>
<symbol overflow="visible" id="glyph0-2">
<path style="stroke:none;" d="M 0.890625 -6.5625 L 2.078125 -6.5625 L 4.984375 -1.078125 L 4.984375 -6.5625 L 5.84375 -6.5625 L 5.84375 0 L 4.65625 0 L 1.75 -5.484375 L 1.75 0 L 0.890625 0 Z M 0.890625 -6.5625 "/>
</symbol>
<symbol overflow="visible" id="glyph0-3">
<path style="stroke:none;" d="M 0.890625 -6.5625 L 1.765625 -6.5625 L 1.765625 -3.875 L 5 -3.875 L 5 -6.5625 L 5.890625 -6.5625 L 5.890625 0 L 5 0 L 5 -3.125 L 1.765625 -3.125 L 1.765625 0 L 0.890625 0 Z M 0.890625 -6.5625 "/>
</symbol>
<symbol overflow="visible" id="glyph0-4">
<path style="stroke:none;" d="M 3.546875 -5.953125 C 2.898438 -5.953125 2.382812 -5.710938 2 -5.234375 C 1.625 -4.753906 1.4375 -4.101562 1.4375 -3.28125 C 1.4375 -2.445312 1.625 -1.789062 2 -1.3125 C 2.382812 -0.832031 2.898438 -0.59375 3.546875 -0.59375 C 4.191406 -0.59375 4.703125 -0.832031 5.078125 -1.3125 C 5.453125 -1.789062 5.640625 -2.445312 5.640625 -3.28125 C 5.640625 -4.101562 5.453125 -4.753906 5.078125 -5.234375 C 4.703125 -5.710938 4.191406 -5.953125 3.546875 -5.953125 Z M 3.546875 -6.6875 C 4.460938 -6.6875 5.195312 -6.375 5.75 -5.75 C 6.300781 -5.132812 6.578125 -4.3125 6.578125 -3.28125 C 6.578125 -2.238281 6.300781 -1.410156 5.75 -0.796875 C 5.195312 -0.179688 4.460938 0.125 3.546875 0.125 C 2.617188 0.125 1.878906 -0.179688 1.328125 -0.796875 C 0.773438 -1.410156 0.5 -2.238281 0.5 -3.28125 C 0.5 -4.3125 0.773438 -5.132812 1.328125 -5.75 C 1.878906 -6.375 2.617188 -6.6875 3.546875 -6.6875 Z M 3.546875 -6.6875 "/>
</symbol>
</g>
</defs>
<g id="surface16321">
<rect x="0" y="0" width="300" height="300" style="fill:rgb(100%,100%,100%);fill-opacity:1;stroke:none;"/>
<path style="fill:none;stroke-width:1.2;stroke-linecap:butt;stroke-linejoin:miter;stroke:rgb(20%,80%,80%);stroke-opacity:1;stroke-miterlimit:10;" d="M 125.929688 217.617188 L 120.605469 207.003906 "/>
<path style="fill:none;stroke-width:1.2;stroke-linecap:butt;stroke-linejoin:miter;stroke:rgb(0%,0%,0%);stroke-opacity:1;stroke-miterlimit:10;" d="M 120.605469 207.003906 L 115.28125 196.394531 "/>
<path style=" stroke:none;fill-rule:nonzero;fill:rgb(100%,100%,100%);fill-opacity:1;" d="M 122.929688 212.117188 L 128.929688 212.117188 L 128.929688 223.117188 L 122.929688 223.117188 Z M 122.929688 212.117188 "/>
<g style="fill:rgb(20%,80%,80%);fill-opacity:1;">
  <use xlink:href="#glyph0-1" x="122.929688" y="220.780273"/>
</g>
<path style="fill:none;stroke-width:1.2;stroke-linecap:butt;stroke-linejoin:miter;stroke:rgb(0%,0%,0%);stroke-opacity:1;stroke-miterlimit:10;" d="M 115.28125 196.394531 L 91.578125 195.003906 "/>
<path style="fill:none;stroke-width:1.2;stroke-linecap:butt;stroke-linejoin:miter;stroke:rgb(0%,0%,0%);stroke-opacity:1;stroke-miterlimit:10;" d="M 113.238281 190.675781 L 94.273438 189.566406 "/>
<path style="fill:none;stroke-width:1.2;stroke-linecap:butt;stroke-linejoin:miter;stroke:rgb(0%,0%,0%);stroke-opacity:1;stroke-miterlimit:10;" d="M 128.335938 176.558594 L 115.28125 196.394531 "/>
<path style="fill:none;stroke-width:1.2;stroke-linecap:butt;stroke-linejoin:miter;stroke:rgb(0%,0%,0%);stroke-opacity:1;stroke-miterlimit:10;" d="M 91.578125 195.003906 L 80.929688 173.78125 "/>
<path style="fill:none;stroke-width:1.2;stroke-linecap:butt;stroke-linejoin:miter;stroke:rgb(0%,0%,0%);stroke-opacity:1;stroke-miterlimit:10;" d="M 80.929688 173.78125 L 93.984375 153.949219 "/>
<path style="fill:none;stroke-width:1.2;stroke-linecap:butt;stroke-linejoin:miter;stroke:rgb(0%,0%,0%);stroke-opacity:1;stroke-miterlimit:10;" d="M 86.902344 174.871094 L 97.34375 159.003906 "/>
<path style="fill:none;stroke-width:1.2;stroke-linecap:butt;stroke-linejoin:miter;stroke:rgb(0%,0%,0%);stroke-opacity:1;stroke-miterlimit:10;" d="M 93.984375 153.949219 L 117.6875 155.335938 "/>
<path style="fill:none;stroke-width:1.2;stroke-linecap:butt;stroke-linejoin:miter;stroke:rgb(0%,0%,0%);stroke-opacity:1;stroke-miterlimit:10;" d="M 93.984375 153.949219 L 83.335938 132.726562 "/>
<path style="fill:none;stroke-width:1.2;stroke-linecap:butt;stroke-linejoin:miter;stroke:rgb(0%,0%,0%);stroke-opacity:1;stroke-miterlimit:10;" d="M 117.6875 155.335938 L 128.335938 176.558594 "/>
<path style="fill:none;stroke-width:1.2;stroke-linecap:butt;stroke-linejoin:miter;stroke:rgb(0%,0%,0%);stroke-opacity:1;stroke-miterlimit:10;" d="M 113.757812 159.964844 L 122.277344 176.941406 "/>
<path style="fill:none;stroke-width:1.2;stroke-linecap:butt;stroke-linejoin:miter;stroke:rgb(0%,0%,0%);stroke-opacity:1;stroke-miterlimit:10;" d="M 83.335938 132.726562 L 71.621094 130.796875 "/>
<path style="fill:none;stroke-width:1.2;stroke-linecap:butt;stroke-linejoin:miter;stroke:rgb(0%,0%,100%);stroke-opacity:1;stroke-miterlimit:10;" d="M 71.621094 130.796875 L 59.90625 128.863281 "/>
<path style="fill:none;stroke-width:1.2;stroke-linecap:butt;stroke-linejoin:miter;stroke:rgb(0%,0%,0%);stroke-opacity:1;stroke-miterlimit:10;" d="M 83.335938 132.726562 L 94.246094 111.636719 "/>
<path style="fill:none;stroke-width:1.2;stroke-linecap:butt;stroke-linejoin:miter;stroke:rgb(0%,0%,0%);stroke-opacity:1;stroke-miterlimit:10;" d="M 79.464844 128.046875 L 88.195312 111.175781 "/>
<path style="fill:none;stroke-width:1.2;stroke-linecap:butt;stroke-linejoin:miter;stroke:rgb(0%,0%,100%);stroke-opacity:1;stroke-miterlimit:10;" d="M 59.90625 128.863281 L 58.125 117.128906 "/>
<path style="fill:none;stroke-width:1.2;stroke-linecap:butt;stroke-linejoin:miter;stroke:rgb(0%,0%,0%);stroke-opacity:1;stroke-miterlimit:10;" d="M 58.125 117.128906 L 56.339844 105.390625 "/>
<path style=" stroke:none;fill-rule:nonzero;fill:rgb(100%,100%,100%);fill-opacity:1;" d="M 52.90625 123.363281 L 66.90625 123.363281 L 66.90625 134.363281 L 52.90625 134.363281 Z M 52.90625 123.363281 "/>
<g style="fill:rgb(0%,0%,100%);fill-opacity:1;">
  <use xlink:href="#glyph0-2" x="52.90625" y="132.026367"/>
  <use xlink:href="#glyph0-3" x="59.883789" y="132.026367"/>
</g>
<path style="fill:none;stroke-width:1.2;stroke-linecap:butt;stroke-linejoin:miter;stroke:rgb(0%,0%,0%);stroke-opacity:1;stroke-miterlimit:10;" d="M 57.621094 102.910156 L 47.078125 97.453125 "/>
<path style="fill:none;stroke-width:1.2;stroke-linecap:butt;stroke-linejoin:miter;stroke:rgb(100%,0%,0%);stroke-opacity:1;stroke-miterlimit:10;" d="M 47.078125 97.453125 L 36.535156 92 "/>
<path style="fill:none;stroke-width:1.2;stroke-linecap:butt;stroke-linejoin:miter;stroke:rgb(0%,0%,0%);stroke-opacity:1;stroke-miterlimit:10;" d="M 55.054688 107.871094 L 44.511719 102.417969 "/>
<path style="fill:none;stroke-width:1.2;stroke-linecap:butt;stroke-linejoin:miter;stroke:rgb(100%,0%,0%);stroke-opacity:1;stroke-miterlimit:10;" d="M 44.511719 102.417969 L 33.964844 96.960938 "/>
<path style="fill:none;stroke-width:1.2;stroke-linecap:butt;stroke-linejoin:miter;stroke:rgb(0%,0%,0%);stroke-opacity:1;stroke-miterlimit:10;" d="M 56.339844 105.390625 L 66.949219 100.066406 "/>
<path style="fill:none;stroke-width:1.2;stroke-linecap:butt;stroke-linejoin:miter;stroke:rgb(0%,0%,100%);stroke-opacity:1;stroke-miterlimit:10;" d="M 66.949219 100.066406 L 77.5625 94.742188 "/>
<path style=" stroke:none;fill-rule:nonzero;fill:rgb(100%,100%,100%);fill-opacity:1;" d="M 27.25 88.980469 L 35.25 88.980469 L 35.25 99.980469 L 27.25 99.980469 Z M 27.25 88.980469 "/>
<g style="fill:rgb(100%,0%,0%);fill-opacity:1;">
  <use xlink:href="#glyph0-4" x="27.25" y="97.643555"/>
</g>
<path style="fill:none;stroke-width:1.2;stroke-linecap:butt;stroke-linejoin:miter;stroke:rgb(0%,0%,100%);stroke-opacity:1;stroke-miterlimit:10;" d="M 77.5625 94.742188 L 85.90625 103.1875 "/>
<path style="fill:none;stroke-width:1.2;stroke-linecap:butt;stroke-linejoin:miter;stroke:rgb(0%,0%,0%);stroke-opacity:1;stroke-miterlimit:10;" d="M 85.90625 103.1875 L 94.246094 111.636719 "/>
<path style=" stroke:none;fill-rule:nonzero;fill:rgb(100%,100%,100%);fill-opacity:1;" d="M 70.5625 89.242188 L 84.5625 89.242188 L 84.5625 100.242188 L 70.5625 100.242188 Z M 70.5625 89.242188 "/>
<g style="fill:rgb(0%,0%,100%);fill-opacity:1;">
  <use xlink:href="#glyph0-2" x="70.5625" y="97.905273"/>
  <use xlink:href="#glyph0-3" x="77.540039" y="97.905273"/>
</g>
<path style="fill:none;stroke-width:1.2;stroke-linecap:butt;stroke-linejoin:miter;stroke:rgb(0%,0%,0%);stroke-opacity:1;stroke-miterlimit:10;" d="M 94.246094 111.636719 L 117.722656 108.066406 "/>
<path style="fill:none;stroke-width:1.2;stroke-linecap:butt;stroke-linejoin:miter;stroke:rgb(0%,0%,0%);stroke-opacity:1;stroke-miterlimit:10;" d="M 117.722656 108.066406 L 132.550781 126.613281 "/>
<path style="fill:none;stroke-width:1.2;stroke-linecap:butt;stroke-linejoin:miter;stroke:rgb(0%,0%,0%);stroke-opacity:1;stroke-miterlimit:10;" d="M 123.566406 106.433594 L 135.429688 121.269531 "/>
<path style="fill:none;stroke-width:1.2;stroke-linecap:butt;stroke-linejoin:miter;stroke:rgb(0%,0%,0%);stroke-opacity:1;stroke-miterlimit:10;" d="M 126.367188 85.953125 L 117.722656 108.066406 "/>
<path style="fill:none;stroke-width:1.2;stroke-linecap:butt;stroke-linejoin:miter;stroke:rgb(0%,0%,0%);stroke-opacity:1;stroke-miterlimit:10;" d="M 132.550781 126.613281 L 156.023438 123.042969 "/>
<path style="fill:none;stroke-width:1.2;stroke-linecap:butt;stroke-linejoin:miter;stroke:rgb(0%,0%,0%);stroke-opacity:1;stroke-miterlimit:10;" d="M 156.023438 123.042969 L 160.347656 111.984375 "/>
<path style="fill:none;stroke-width:1.2;stroke-linecap:butt;stroke-linejoin:miter;stroke:rgb(0%,0%,100%);stroke-opacity:1;stroke-miterlimit:10;" d="M 160.347656 111.984375 L 164.671875 100.929688 "/>
<path style="fill:none;stroke-width:1.2;stroke-linecap:butt;stroke-linejoin:miter;stroke:rgb(0%,0%,0%);stroke-opacity:1;stroke-miterlimit:10;" d="M 151.683594 118.796875 L 155.144531 109.953125 "/>
<path style="fill:none;stroke-width:1.2;stroke-linecap:butt;stroke-linejoin:miter;stroke:rgb(0%,0%,100%);stroke-opacity:1;stroke-miterlimit:10;" d="M 155.144531 109.953125 L 158.601562 101.105469 "/>
<path style="fill:none;stroke-width:1.2;stroke-linecap:butt;stroke-linejoin:miter;stroke:rgb(0%,0%,0%);stroke-opacity:1;stroke-miterlimit:10;" d="M 156.023438 123.042969 L 163.4375 132.316406 "/>
<path style="fill:none;stroke-width:1.2;stroke-linecap:butt;stroke-linejoin:miter;stroke:rgb(0%,0%,100%);stroke-opacity:1;stroke-miterlimit:10;" d="M 163.4375 132.316406 L 170.851562 141.589844 "/>
<path style="fill:none;stroke-width:1.2;stroke-linecap:butt;stroke-linejoin:miter;stroke:rgb(0%,0%,100%);stroke-opacity:1;stroke-miterlimit:10;" d="M 164.671875 100.929688 L 157.257812 91.65625 "/>
<path style="fill:none;stroke-width:1.2;stroke-linecap:butt;stroke-linejoin:miter;stroke:rgb(0%,0%,0%);stroke-opacity:1;stroke-miterlimit:10;" d="M 157.257812 91.65625 L 149.84375 82.382812 "/>
<path style=" stroke:none;fill-rule:nonzero;fill:rgb(100%,100%,100%);fill-opacity:1;" d="M 161.671875 95.429688 L 168.671875 95.429688 L 168.671875 106.429688 L 161.671875 106.429688 Z M 161.671875 95.429688 "/>
<g style="fill:rgb(0%,0%,100%);fill-opacity:1;">
  <use xlink:href="#glyph0-2" x="161.671875" y="104.092773"/>
</g>
<path style="fill:none;stroke-width:1.2;stroke-linecap:butt;stroke-linejoin:miter;stroke:rgb(0%,0%,0%);stroke-opacity:1;stroke-miterlimit:10;" d="M 149.84375 82.382812 L 126.367188 85.953125 "/>
<path style="fill:none;stroke-width:1.2;stroke-linecap:butt;stroke-linejoin:miter;stroke:rgb(0%,0%,0%);stroke-opacity:1;stroke-miterlimit:10;" d="M 148.335938 88.265625 L 129.554688 91.121094 "/>
<path style="fill:none;stroke-width:1.2;stroke-linecap:butt;stroke-linejoin:miter;stroke:rgb(0%,0%,100%);stroke-opacity:1;stroke-miterlimit:10;" d="M 170.851562 141.589844 L 182.589844 139.804688 "/>
<path style="fill:none;stroke-width:1.2;stroke-linecap:butt;stroke-linejoin:miter;stroke:rgb(0%,0%,0%);stroke-opacity:1;stroke-miterlimit:10;" d="M 182.589844 139.804688 L 194.328125 138.019531 "/>
<path style=" stroke:none;fill-rule:nonzero;fill:rgb(100%,100%,100%);fill-opacity:1;" d="M 163.851562 136.089844 L 177.851562 136.089844 L 177.851562 147.089844 L 163.851562 147.089844 Z M 163.851562 136.089844 "/>
<g style="fill:rgb(0%,0%,100%);fill-opacity:1;">
  <use xlink:href="#glyph0-2" x="163.851562" y="144.75293"/>
  <use xlink:href="#glyph0-3" x="170.829102" y="144.75293"/>
</g>
<path style="fill:none;stroke-width:1.2;stroke-linecap:butt;stroke-linejoin:miter;stroke:rgb(0%,0%,0%);stroke-opacity:1;stroke-miterlimit:10;" d="M 194.328125 138.019531 L 209.15625 156.5625 "/>
<path style="fill:none;stroke-width:1.2;stroke-linecap:butt;stroke-linejoin:miter;stroke:rgb(0%,0%,0%);stroke-opacity:1;stroke-miterlimit:10;" d="M 202.972656 115.90625 L 194.328125 138.019531 "/>
<path style="fill:none;stroke-width:1.2;stroke-linecap:butt;stroke-linejoin:miter;stroke:rgb(0%,0%,0%);stroke-opacity:1;stroke-miterlimit:10;" d="M 209.15625 156.5625 L 232.628906 152.996094 "/>
<path style="fill:none;stroke-width:1.2;stroke-linecap:butt;stroke-linejoin:miter;stroke:rgb(0%,0%,0%);stroke-opacity:1;stroke-miterlimit:10;" d="M 232.628906 152.996094 L 241.277344 130.882812 "/>
<path style="fill:none;stroke-width:1.2;stroke-linecap:butt;stroke-linejoin:miter;stroke:rgb(0%,0%,0%);stroke-opacity:1;stroke-miterlimit:10;" d="M 241.277344 130.882812 L 253.011719 129.097656 "/>
<path style="fill:none;stroke-width:1.2;stroke-linecap:butt;stroke-linejoin:miter;stroke:rgb(100%,0%,0%);stroke-opacity:1;stroke-miterlimit:10;" d="M 253.011719 129.097656 L 264.75 127.3125 "/>
<path style="fill:none;stroke-width:1.2;stroke-linecap:butt;stroke-linejoin:miter;stroke:rgb(0%,0%,0%);stroke-opacity:1;stroke-miterlimit:10;" d="M 241.277344 130.882812 L 226.449219 112.335938 "/>
<path style=" stroke:none;fill-rule:nonzero;fill:rgb(100%,100%,100%);fill-opacity:1;" d="M 257.75 121.8125 L 272.75 121.8125 L 272.75 132.8125 L 257.75 132.8125 Z M 257.75 121.8125 "/>
<g style="fill:rgb(100%,0%,0%);fill-opacity:1;">
  <use xlink:href="#glyph0-4" x="257.75" y="130.475586"/>
  <use xlink:href="#glyph0-3" x="265.091797" y="130.475586"/>
</g>
<path style="fill:none;stroke-width:1.2;stroke-linecap:butt;stroke-linejoin:miter;stroke:rgb(0%,0%,0%);stroke-opacity:1;stroke-miterlimit:10;" d="M 226.449219 112.335938 L 202.972656 115.90625 "/>
</g>
</svg>

<svg xmlns="http://www.w3.org/2000/svg" xmlns:xlink="http://www.w3.org/1999/xlink" width="300pt" height="300pt" viewBox="0 0 300 300"><defs><symbol overflow="visible"><path d="M.453 1.594v-7.938h4.5v7.938zm.5-.5h3.5v-6.938h-3.5zm0 0"/></symbol><symbol overflow="visible" id="a"><path d="M.89-6.563h3.766v.75h-2.89v1.938h2.61v.734h-2.61V0H.89zm0 0"/></symbol><symbol overflow="visible" id="b"><path d="M.89-6.563H2.08l2.906 5.485v-5.484h.86V0H4.656L1.75-5.484V0H.89zm0 0"/></symbol><symbol overflow="visible" id="c"><path d="M.89-6.563h.876v2.688H5v-2.688h.89V0H5v-3.125H1.766V0H.89zm0 0"/></symbol><symbol overflow="visible" id="d"><path d="M3.547-5.953c-.65 0-1.164.242-1.547.72-.375.48-.563 1.13-.563 1.952 0 .835.188 1.49.563 1.967.383.48.898.72 1.547.72.644 0 1.156-.24 1.53-.72.376-.476.564-1.132.564-1.968 0-.822-.187-1.474-.562-1.954-.375-.477-.887-.72-1.53-.72zm0-.734c.914 0 1.648.312 2.203.937.55.617.828 1.438.828 2.47 0 1.042-.277 1.87-.828 2.483-.555.617-1.29.922-2.203.922-.93 0-1.668-.305-2.22-.922C.774-1.41.5-2.237.5-3.28c0-1.033.273-1.853.828-2.47.55-.625 1.29-.938 2.22-.938zm0 0"/></symbol></defs><g><path fill="#fff" d="M0 0h300v300H0z"/><path d="M125.93 217.617l-5.325-10.613" stroke-width="1.2" stroke="#3cc" stroke-miterlimit="10" fill="none"/><path d="M120.605 207.004l-5.324-10.61" stroke-width="1.2" stroke="#000" stroke-miterlimit="10" fill="none"/><path d="M122.93 212.117h6v11h-6zm0 0" fill="#fff"/><use xlink:href="#a" x="122.93" y="220.78" fill="#3cc"/><path d="M115.28 196.395l-23.702-1.39M113.238 190.676l-18.965-1.11M128.336 176.56l-13.055 19.835M91.578 195.004L80.93 173.78M80.93 173.78l13.054-19.83M86.902 174.87l10.442-15.866M93.984 153.95l23.704 1.386M93.984 153.95l-10.648-21.223M117.688 155.336l10.648 21.223M113.758 159.965l8.52 16.976M83.336 132.727l-11.715-1.93" stroke-width="1.2" stroke="#000" stroke-miterlimit="10" fill="none"/><path d="M71.62 130.797l-11.714-1.934" stroke-width="1.2" stroke="#00f" stroke-miterlimit="10" fill="none"/><path d="M83.336 132.727l10.91-21.09M79.465 128.047l8.73-16.87" stroke-width="1.2" stroke="#000" stroke-miterlimit="10" fill="none"/><path d="M59.906 128.863l-1.78-11.734" stroke-width="1.2" stroke="#00f" stroke-miterlimit="10" fill="none"/><path d="M58.125 117.13l-1.785-11.74" stroke-width="1.2" stroke="#000" stroke-miterlimit="10" fill="none"/><path d="M52.906 123.363h14v11h-14zm0 0" fill="#fff"/><g fill="#00f"><use xlink:href="#b" x="52.906" y="132.026"/><use xlink:href="#c" x="59.884" y="132.026"/></g><path d="M57.62 102.91L47.08 97.453" stroke-width="1.2" stroke="#000" stroke-miterlimit="10" fill="none"/><path d="M47.078 97.453L36.535 92" stroke-width="1.2" stroke="#f00" stroke-miterlimit="10" fill="none"/><path d="M55.055 107.87l-10.543-5.452" stroke-width="1.2" stroke="#000" stroke-miterlimit="10" fill="none"/><path d="M44.512 102.418L33.965 96.96" stroke-width="1.2" stroke="#f00" stroke-miterlimit="10" fill="none"/><path d="M56.34 105.39l10.61-5.324" stroke-width="1.2" stroke="#000" stroke-miterlimit="10" fill="none"/><path d="M66.95 100.066l10.612-5.324" stroke-width="1.2" stroke="#00f" stroke-miterlimit="10" fill="none"/><path d="M27.25 88.98h8v11h-8zm0 0" fill="#fff"/><use xlink:href="#d" x="27.25" y="97.644" fill="#f00"/><path d="M77.563 94.742l8.343 8.445" stroke-width="1.2" stroke="#00f" stroke-miterlimit="10" fill="none"/><path d="M85.906 103.188l8.34 8.45" stroke-width="1.2" stroke="#000" stroke-miterlimit="10" fill="none"/><path d="M70.563 89.242h14v11h-14zm0 0" fill="#fff"/><g fill="#00f"><use xlink:href="#b" x="70.563" y="97.905"/><use xlink:href="#c" x="77.54" y="97.905"/></g><path d="M94.246 111.637l23.477-3.57M117.723 108.066l14.828 18.547M123.566 106.434l11.864 14.836M126.367 85.953l-8.644 22.113M132.55 126.613l23.473-3.57M156.023 123.043l4.325-11.06" stroke-width="1.2" stroke="#000" stroke-miterlimit="10" fill="none"/><path d="M160.348 111.984l4.324-11.054" stroke-width="1.2" stroke="#00f" stroke-miterlimit="10" fill="none"/><path d="M151.684 118.797l3.46-8.844" stroke-width="1.2" stroke="#000" stroke-miterlimit="10" fill="none"/><path d="M155.145 109.953l3.457-8.848" stroke-width="1.2" stroke="#00f" stroke-miterlimit="10" fill="none"/><path d="M156.023 123.043l7.415 9.273" stroke-width="1.2" stroke="#000" stroke-miterlimit="10" fill="none"/><path d="M163.438 132.316l7.414 9.274M164.672 100.93l-7.414-9.274" stroke-width="1.2" stroke="#00f" stroke-miterlimit="10" fill="none"/><path d="M157.258 91.656l-7.414-9.273" stroke-width="1.2" stroke="#000" stroke-miterlimit="10" fill="none"/><path d="M161.672 95.43h7v11h-7zm0 0" fill="#fff"/><use xlink:href="#b" x="161.672" y="104.093" fill="#00f"/><path d="M149.844 82.383l-23.477 3.57M148.336 88.266l-18.78 2.855" stroke-width="1.2" stroke="#000" stroke-miterlimit="10" fill="none"/><path d="M170.852 141.59l11.738-1.785" stroke-width="1.2" stroke="#00f" stroke-miterlimit="10" fill="none"/><path d="M182.59 139.805l11.738-1.785" stroke-width="1.2" stroke="#000" stroke-miterlimit="10" fill="none"/><path d="M163.852 136.09h14v11h-14zm0 0" fill="#fff"/><g fill="#00f"><use xlink:href="#b" x="163.852" y="144.753"/><use xlink:href="#c" x="170.829" y="144.753"/></g><path d="M194.328 138.02l14.828 18.542M202.973 115.906l-8.645 22.114M209.156 156.563l23.473-3.567M232.63 152.996l8.647-22.113M241.277 130.883l11.735-1.785" stroke-width="1.2" stroke="#000" stroke-miterlimit="10" fill="none"/><path d="M253.012 129.098l11.738-1.786" stroke-width="1.2" stroke="#f00" stroke-miterlimit="10" fill="none"/><path d="M241.277 130.883l-14.828-18.547" stroke-width="1.2" stroke="#000" stroke-miterlimit="10" fill="none"/><path d="M257.75 121.813h15v11h-15zm0 0" fill="#fff"/><g fill="#f00"><use xlink:href="#d" x="257.75" y="130.476"/><use xlink:href="#c" x="265.092" y="130.476"/></g><path d="M226.45 112.336l-23.477 3.57" stroke-width="1.2" stroke="#000" stroke-miterlimit="10" fill="none"/></g></svg>
